modules/gui/qt/pixmaps/icons/atob.svg

<?xml version="1.0" encoding="UTF-8" standalone="no"?>
<!-- Created with Inkscape (http://www.inkscape.org/) -->

<svg
   xmlns:dc="http://purl.org/dc/elements/1.1/"
   xmlns:cc="http://creativecommons.org/ns#"
   xmlns:rdf="http://www.w3.org/1999/02/22-rdf-syntax-ns#"
   xmlns:svg="http://www.w3.org/2000/svg"
   xmlns="http://www.w3.org/2000/svg"
   xmlns:sodipodi="http://sodipodi.sourceforge.net/DTD/sodipodi-0.dtd"
   xmlns:inkscape="http://www.inkscape.org/namespaces/inkscape"
   width="48"
   height="48"
   viewBox="0 0 48 48"
   id="svg2"
   version="1.1"
   inkscape:version="0.92.1 r15371"
   sodipodi:docname="atob.svg">
  <defs
     id="defs8" />
  <sodipodi:namedview
     pagecolor="#ffffff"
     bordercolor="#666666"
     borderopacity="1"
     objecttolerance="10"
     gridtolerance="10"
     guidetolerance="10"
     inkscape:pageopacity="0"
     inkscape:pageshadow="2"
     inkscape:window-width="796"
     inkscape:window-height="835"
     id="namedview6"
     showgrid="false"
     inkscape:zoom="6.9532167"
     inkscape:cx="23.786019"
     inkscape:cy="33.461327"
     inkscape:window-x="800"
     inkscape:window-y="27"
     inkscape:window-maximized="0"
     inkscape:current-layer="layer1"
     showguides="true"
     inkscape:guide-bbox="true">
    <sodipodi:guide
       position="0,24.017661"
       orientation="1,0"
       id="guide2390"
       inkscape:locked="false" />
    <sodipodi:guide
       position="23.59322,0"
       orientation="0,1"
       id="guide2392"
       inkscape:locked="false" />
  </sodipodi:namedview>
  <metadata
     id="metadata7">
    <rdf:RDF>
      <cc:Work
         rdf:about="">
        <dc:format>image/svg+xml</dc:format>
        <dc:type
           rdf:resource="http://purl.org/dc/dcmitype/StillImage" />
        <dc:title />
      </cc:Work>
    </rdf:RDF>
  </metadata>
  <g
     inkscape:label="Master"
     inkscape:groupmode="layer"
     id="layer1"
     transform="translate(-384,-1004.3622)"
     style="display:inline">
    <path
       style="color:#000000;display:inline;overflow:visible;visibility:visible;opacity:1;fill:#ff950d;fill-opacity:1;fill-rule:evenodd;stroke:none;stroke-width:4;stroke-linecap:butt;stroke-linejoin:round;stroke-miterlimit:4;stroke-dasharray:none;stroke-dashoffset:4.19999981;stroke-opacity:1;marker:none;enable-background:accumulate"
       d="M 11 28 A 4 3.9999981 0 0 0 7 32 L 7 44 L 11 44 L 11 40 L 15 40 L 15 44 L 19 44 L 19 32 A 3.9999981 4 0 0 0 15 28 L 11 28 z M 29 28 L 29 44 L 38 44 C 39.65685 44 41 42.6569 41 41 L 41 39 C 41 37.3432 39.65685 36 38 36 L 37 36 A 3 2.9999986 0 0 0 40 33 L 40 31 C 40 29.3432 38.65685 28 37 28 L 29 28 z M 12 31 L 14 31 A 0.9999995 1 0 0 1 15 32 L 15 37 L 11 37 L 11 32 A 1 0.9999995 0 0 1 12 31 z M 33 31 L 35 31 C 35.55228 31 36 31.4477 36 32 L 36 33.5 C 36 34.0523 35.55228 34.5 35 34.5 L 33 34.5 L 33 31 z M 33 37.5 L 36 37.5 C 36.55228 37.5 37 37.9477 37 38.5 L 37 40 C 37 40.5523 36.55228 41 36 41 L 33 41 L 33 37.5 z "
       transform="translate(384,1004.3622)"
       id="rect6881" />
    <path
       style="color:#000000;display:inline;overflow:visible;visibility:visible;opacity:1;fill:#747474;fill-opacity:1;fill-rule:nonzero;stroke:none;stroke-width:5.61248589;stroke-linecap:round;stroke-linejoin:round;stroke-miterlimit:4;stroke-dasharray:none;stroke-dashoffset:0;stroke-opacity:1;marker:none;enable-background:accumulate"
       d="M 10 6 L 10 12 L 10 20 L 16 20 L 16 12 L 32 12 L 32 16 L 27 16 L 35 24 L 43 16 L 38 16 L 38 12 L 38 6 L 10 6 z "
       transform="translate(384,1004.3622)"
       id="rect7085-3" />
  </g>
</svg>

<svg viewBox="0 0 48 48" xmlns="http://www.w3.org/2000/svg">
  <path d="M11 28a4 4 0 0 0-4 4v12h4v-4h4v4h4V32a4 4 0 0 0-4-4h-4zm18 0v16h9a3 3 0 0 0 3-3v-2a3 3 0 0 0-3-3h-1a3 3 0 0 0 3-3v-2a3 3 0 0 0-3-3h-8zm-17 3h2a1 1 0 0 1 1 1v5h-4v-5a1 1 0 0 1 1-1zm21 0h2a1 1 0 0 1 1 1v1.5a1 1 0 0 1-1 1h-2V31zm0 6.5h3a1 1 0 0 1 1 1V40a1 1 0 0 1-1 1h-3v-3.5z" fill="#ff950d" fill-rule="evenodd"/>
  <path d="M10 6v14h6v-8h16v4h-5l8 8 8-8h-5V6H10z" fill="#747474"/>
</svg>
